X:124
T:Glen Allen
Z: id:dc-reel-114
M:C
L:1/8
K:G Major
DE|G2DG EGDE|G2BG AGEG|A2EA FAEA|ABcd edBA|!
G2DG EGDE|G2BG AGEG|cBcd efge|dBAB G2:|!
Bd|g2dg egde|g2bg ageg|a2ea fae^g|a2bg agef|!
g2dg egde|g2bg aged|cBcd efge|dBAB G2:|!

